src/images/logo.svg

<svg xmlns="http://www.w3.org/2000/svg" width="246.8" height="336.19"><style>.st0{fill:#ffdd0c}</style><path class="st0" d="M174.35 256.01c0 4.03-3.15 7.29-7.04 7.29H79.48c-3.89 0-7.04-3.26-7.04-7.29v-1.21c0-4.03 3.15-7.29 7.04-7.29h87.83c3.89 0 7.04 3.26 7.04 7.29zM170.91 280.3c0 4.02-3.15 7.29-7.04 7.29H82.92c-3.89 0-7.04-3.27-7.04-7.29v-1.21c0-4.03 3.15-7.29 7.04-7.29h80.95c3.89 0 7.04 3.26 7.04 7.29zM167.46 304.59c0 4.02-3.15 7.28-7.04 7.28H86.37c-3.89 0-7.04-3.26-7.04-7.28v-1.22c0-4.02 3.15-7.28 7.04-7.28h74.05c3.89 0 7.04 3.26 7.04 7.28zM135.2 320.4h-11.75v-.03h-12.4c-3.88 0-7.03 3.27-7.03 7.29v1.21c0 4.03 3.15 7.29 7.03 7.29h12.07v.03h12.08c3.89 0 7.05-3.27 7.05-7.29v-1.22c0-4.02-3.16-7.28-7.05-7.28M107.68 14.65a2.6 2.6 0 0 1-2.59-2.6 2.59 2.59 0 0 1 5.18 0 2.6 2.6 0 0 1-2.59 2.6m-8.21 5.04a42.88 42.88 0 0 0-19.55 20.15c-.58 1.24-2.01 1.9-3.27 1.42-1.25-.48-1.81-2.07-1.15-3.49a47.715 47.715 0 0 1 21.77-22.44c1.4-.7 3.01-.19 3.53 1.05s-.1 2.69-1.33 3.31M57.15 50.82c-20.84 3.23-37.99 18.19-44 38.4-.42 1.4-1.76 2.31-3.08 2-1.31-.31-2.07-1.85-1.61-3.4C15.02 65.8 33.7 49.5 56.4 45.99c1.6-.25 3.02.71 3.15 2.05.13 1.35-.95 2.56-2.4 2.78m125.84-13.59C172.65 15.25 150.36 0 124.46 0S76.28 15.25 65.94 37.25c-.42-.02-.82-.07-1.23-.07C28.97 37.18 0 63.67 0 96.33c0 29.85 24.23 54.47 55.67 58.5l8.43 69.1c.54 8.6 7.36 15.57 15.23 15.57h90.61c7.86 0 14.68-6.97 15.21-15.57l8.49-69.45c30.22-4.99 53.16-29.1 53.16-58.15 0-32.38-28.49-58.66-63.81-59.1"/></svg>

<svg xmlns="http://www.w3.org/2000/svg" width="246.8" height="336.19" viewBox="0 0 246.8 336.19">
	<style type="text/css">
		.st0{fill:#ffdd0c;}
	</style>
	<path class="st0" d="M174.35,256.01C174.35,260.04 171.2,263.3 167.31,263.3L79.48,263.3C75.59,263.3 72.44,260.04 72.44,256.01L72.44,254.8C72.44,250.77 75.59,247.51 79.48,247.51L167.31,247.51C171.2,247.51 174.35,250.77 174.35,254.8Z"/>
	<path class="st0" d="M170.91,280.3C170.91,284.32 167.76,287.59 163.87,287.59L82.92,287.59C79.03,287.59 75.88,284.32 75.88,280.3L75.88,279.09C75.88,275.06 79.03,271.8 82.92,271.8L163.87,271.8C167.76,271.8 170.91,275.06 170.91,279.09Z"/>
	<path class="st0" d="M167.46,304.59C167.46,308.61 164.31,311.87 160.42,311.87L86.37,311.87C82.48,311.87 79.33,308.61 79.33,304.59L79.33,303.37C79.33,299.35 82.48,296.09 86.37,296.09L160.42,296.09C164.31,296.09 167.46,299.35 167.46,303.37Z"/>
	<path class="st0" d="M135.2,320.4L123.45,320.4L123.45,320.37L111.05,320.37C107.17,320.37 104.02,323.64 104.02,327.66L104.02,328.87C104.02,332.9 107.17,336.16 111.05,336.16L123.12,336.16L123.12,336.19L135.2,336.19C139.09,336.19 142.25,332.92 142.25,328.9L142.25,327.68C142.25,323.66 139.09,320.4 135.2,320.4"/>
	<path class="st0" d="M107.68,14.65C106.25,14.65 105.09,13.48 105.09,12.05C105.09,10.62 106.25,9.46 107.68,9.46C109.11,9.46 110.27,10.62 110.27,12.05C110.27,13.48 109.11,14.65 107.68,14.65M99.47,19.69C90.88,24.02 83.99,31.12 79.92,39.84C79.34,41.08 77.91,41.74 76.65,41.26C75.4,40.78 74.84,39.19 75.5,37.77C80.03,28.06 87.7,20.15 97.27,15.33C98.67,14.63 100.28,15.14 100.8,16.38C101.32,17.62 100.7,19.07 99.47,19.69M57.15,50.82C36.31,54.05 19.16,69.01 13.15,89.22C12.73,90.62 11.39,91.53 10.07,91.22C8.76,90.91 8,89.37 8.46,87.82C15.02,65.8 33.7,49.5 56.4,45.99C58,45.74 59.42,46.7 59.55,48.04C59.68,49.39 58.6,50.6 57.15,50.82M182.99,37.23C172.65,15.25 150.36,0 124.46,0C98.56,0 76.28,15.25 65.94,37.25C65.52,37.23 65.12,37.18 64.71,37.18C28.97,37.18 0,63.67 0,96.33C0,126.18 24.23,150.8 55.67,154.83L64.1,223.93C64.64,232.53 71.46,239.5 79.33,239.5L169.94,239.5C177.8,239.5 184.62,232.53 185.15,223.93L193.64,154.48C223.86,149.49 246.8,125.38 246.8,96.33C246.8,63.95 218.31,37.67 182.99,37.23"/>
</svg>
